assets/img/icons_pokemon/fighting.svg

<svg width="256" height="256" viewBox="0 0 256 256" fill="none" xmlns="http://www.w3.org/2000/svg">
<g clip-path="url(#clip0_57_728)">
<path d="M128 256C198.692 256 256 198.692 256 128C256 57.3075 198.692 0 128 0C57.3075 0 0 57.3075 0 128C0 198.692 57.3075 256 128 256Z" fill="#E49021"/>
<path d="M187.37 155.46C187.92 155.64 188.32 156.17 188.38 156.75C190.12 173.46 188.26 176.31 173.33 182.03C155.01 189.04 136.24 194.5 117.05 198.64C110.56 200.04 104.23 199.87 98.5002 197.08C88.9502 192.42 80.0702 186.5 71.7102 179.9C68.8102 177.61 67.3602 174.65 67.2602 170.98C67.1002 165.02 67.5802 159.04 67.2602 153.08C66.9702 147.78 68.9602 144.82 74.2702 144.83C88.2502 144.85 102.23 144.83 116.21 144.9C118.94 144.91 121.9 145.29 122.38 148.66C123.23 154.73 127.54 154.66 132.02 154.66C147 154.64 161.98 154.64 176.96 154.7C180.3 154.71 183.7 154.3 187.36 155.47L187.37 155.46Z" fill="white"/>
<path d="M66.7902 96.9998C66.7902 89.3498 66.6202 81.6898 66.8402 74.0398C67.0702 65.7898 68.1302 64.8798 76.1302 64.5498C88.4802 64.0298 89.6802 65.1698 89.7002 77.7898C89.7302 92.0998 89.8102 106.41 89.6502 120.71C89.5502 129.31 87.5102 131.12 78.9402 131.3C69.6702 131.48 67.1202 129.47 66.8602 120.96C66.6202 112.98 66.8102 104.99 66.8102 96.9998C66.8102 96.9998 66.8002 96.9998 66.7902 96.9998Z" fill="white"/>
<path d="M162.9 146.55C156.25 146.55 149.59 146.51 142.94 146.56C136.82 146.61 133.66 143.61 133.5 137.52C133.41 134.2 133.27 130.86 133.5 127.55C133.86 122.16 136.65 118.82 142.31 118.79C155.95 118.71 169.59 118.8 183.22 118.75C187.44 118.73 188.8 120.83 189.25 124.85C191.57 145.57 190.73 146.62 169.89 146.62C167.56 146.62 165.23 146.62 162.9 146.62C162.9 146.6 162.9 146.57 162.9 146.55Z" fill="white"/>
<path d="M122.79 98.15C122.79 106.13 123.04 114.11 122.72 122.08C122.42 129.45 119.98 131.22 111.59 131.29C102.89 131.36 100.24 129.79 100.09 122.51C99.7298 105.9 99.9998 89.28 99.9398 72.66C99.9198 66.68 102.95 64.25 108.66 64.55C109.99 64.62 111.32 64.51 112.65 64.55C121.5 64.76 122.56 65.63 122.78 74.22C122.98 82.19 122.82 90.17 122.82 98.15C122.82 98.15 122.8 98.15 122.79 98.15Z" fill="white"/>
<path d="M189.2 87.77C189.2 93.41 189.2 99.04 189.2 104.68C189.2 108.73 187.3 110.86 183.09 110.61C182.43 110.57 181.76 110.61 181.1 110.64C171.2 111.047 166.247 106.353 166.24 96.56C166.24 89.26 166.14 81.96 166.28 74.67C166.45 65.6 167.54 64.63 176.85 64.47C178.51 64.44 180.17 64.54 181.82 64.52C186.76 64.47 189.15 67.01 189.19 71.84C189.23 77.15 189.19 82.45 189.19 87.76L189.2 87.77Z" fill="white"/>
<path d="M156.1 88.0901C156.1 93.4201 156 98.7501 156.13 104.08C156.25 108.76 154.08 110.56 149.49 110.59C130.18 110.71 133.43 111.21 133.15 95.8201C133.01 88.1601 133.26 80.4901 133.18 72.8301C133.12 66.9301 135.94 64.2701 141.77 64.5401C144.1 64.6501 146.43 64.6001 148.76 64.5901C153.79 64.5801 155.99 67.3101 156.02 72.0901C156.05 77.4201 156.02 82.7501 156.02 88.0801H156.08L156.1 88.0901Z" fill="white"/>
</g>
<defs>
<clipPath id="clip0_57_728">
<rect width="256" height="256" fill="white"/>
</clipPath>
</defs>
</svg>

<?xml version="1.0" encoding="UTF-8"?>
<svg id="Layer_1" data-name="Layer 1" xmlns="http://www.w3.org/2000/svg" viewBox="0 0 256 256">
  <defs>
    <style>
      .cls-1 {
        fill: #fff;
      }

      .cls-2 {
        fill: #e49021;
      }
    </style>
  </defs>
  <circle class="cls-2" cx="128" cy="128" r="128"/>
  <path class="cls-1" d="M187.37,155.46c.55,.18,.95,.71,1.01,1.29,1.74,16.71-.12,19.56-15.05,25.28-18.32,7.01-37.09,12.47-56.28,16.61-6.49,1.4-12.82,1.23-18.55-1.56-9.55-4.66-18.43-10.58-26.79-17.18-2.9-2.29-4.35-5.25-4.45-8.92-.16-5.96,.32-11.94,0-17.9-.29-5.3,1.7-8.26,7.01-8.25,13.98,.02,27.96,0,41.94,.07,2.73,.01,5.69,.39,6.17,3.76,.85,6.07,5.16,6,9.64,6,14.98-.02,29.96-.02,44.94,.04,3.34,.01,6.74-.4,10.4,.77Z"/>
  <path class="cls-1" d="M66.79,97c0-7.65-.17-15.31,.05-22.96,.23-8.25,1.29-9.16,9.29-9.49,12.35-.52,13.55,.62,13.57,13.24,.03,14.31,.11,28.62-.05,42.92-.1,8.6-2.14,10.41-10.71,10.59-9.27,.18-11.82-1.83-12.08-10.34-.24-7.98-.05-15.97-.05-23.96,0,0-.01,0-.02,0Z"/>
  <path class="cls-1" d="M162.9,146.55c-6.65,0-13.31-.04-19.96,.01-6.12,.05-9.28-2.95-9.44-9.04-.09-3.32-.23-6.66,0-9.97,.36-5.39,3.15-8.73,8.81-8.76,13.64-.08,27.28,.01,40.91-.04,4.22-.02,5.58,2.08,6.03,6.1,2.32,20.72,1.48,21.77-19.36,21.77-2.33,0-4.66,0-6.99,0,0-.02,0-.05,0-.07Z"/>
  <path class="cls-1" d="M122.79,98.15c0,7.98,.25,15.96-.07,23.93-.3,7.37-2.74,9.14-11.13,9.21-8.7,.07-11.35-1.5-11.5-8.78-.36-16.61-.09-33.23-.15-49.85-.02-5.98,3.01-8.41,8.72-8.11,1.33,.07,2.66-.04,3.99,0,8.85,.21,9.91,1.08,10.13,9.67,.2,7.97,.04,15.95,.04,23.93,0,0-.02,0-.03,0Z"/>
  <path class="cls-1" d="M189.2,87.77c0,5.64,0,11.27,0,16.91,0,4.05-1.9,6.18-6.11,5.93-.66-.04-1.33,0-1.99,.03q-14.85,.61-14.86-14.08c0-7.3-.1-14.6,.04-21.89,.17-9.07,1.26-10.04,10.57-10.2,1.66-.03,3.32,.07,4.97,.05,4.94-.05,7.33,2.49,7.37,7.32,.04,5.31,0,10.61,0,15.92Z"/>
  <path class="cls-1" d="M156.1,88.09c0,5.33-.1,10.66,.03,15.99,.12,4.68-2.05,6.48-6.64,6.51-19.31,.12-16.06,.62-16.34-14.77-.14-7.66,.11-15.33,.03-22.99-.06-5.9,2.76-8.56,8.59-8.29,2.33,.11,4.66,.06,6.99,.05,5.03-.01,7.23,2.72,7.26,7.5,.03,5.33,0,10.66,0,15.99h.06Z"/>
</svg>
